X: 0
T: Kings of Orient
Z: Rev. Dr. John Henry Hopkins
Z: Copyright © 2004 Douglas D. Anderson
Z: Released To The Public Domain
L: 1/4
M: 3/8
Q: 1/4=90
V: P1 name="Staff"
K:
%%MIDI program 1 19
K: G
[V: P1]  B A/ | G E/ | F/ G/ F/ | Ez/ | B A/ | G E/ | F/ G/ F/ | Ez/ | G G/ | A A/ | B B/ | (d/ c/) B/ | A/ B/ A/ | G F/ Ez/ | (F A/) | G G/ | G D/ | G D/ | Gz/ | G G/ | G D/ | G E/ | Gz/ | G G/ | A B/ | c B/ | A B/ | G G/ | G D/ | G E/ | G3/|]
w: We three kings of Or- i ent are Bear- ing gifts, we tra- verse a- far. Field and foun- tain, moor and moun-_ tain, Fol- low ing yon- der star. Oh,_ star of won- der, star of night, Star with roy- al beau- ty bright, West- ward lead- ing, still pro- ceed ing, Guide us to thy per- fect Light.
